shader oslTangentSpace
(
    vector direction = vector(0, 1, 0),
    int normalType = 0
        [[
            string widget = "popup",
            string options = "ShadingNormal|GeometricNormal"
        ]],
    output vector tangent = vector(0, 0, 0)
)
{
    if (0 == normalType)
    {
        tangent = cross(direction, N);
    }
    else if (1 == normalType)
    {
        tangent = cross(direction, Ng);
    }
}